src/components/common/icons/wifi.svg

<svg height="40" viewBox="0 0 64 40" width="64" xmlns="http://www.w3.org/2000/svg"><g fill="#231f20" fill-rule="evenodd"><path d="m60.3693047 16.8227983c-7.5846867-7.58468671-17.6689442-11.76171675-28.3953991-11.76171675-10.7263176 0-20.8105751 4.17703004-28.39526182 11.76171675l-3.57864378-3.5787811c8.54056652-8.54056656 19.8957597-13.2440172 31.9739056-13.2440172 12.0782832 0 23.4334764 4.70345064 31.9740429 13.2440172z"/><path d="m52.6721373 24.4856309c-5.529545-5.5295451-12.8813047-8.5747639-20.7012532-8.5747639-7.8198111 0-15.1717081 3.0452188-20.7011159 8.5747639l-3.57878108-3.5786438c6.48542488-6.4854249 15.10825748-10.0572017 24.27989698-10.0572017 9.1717768 0 17.7944721 3.5717768 24.279897 10.0570644z"/><path d="m44.9748326 32.1483262c-3.4742661-3.4744035-8.0936652-5.3876738-13.0071073-5.3876738-4.913442 0-9.5327038 1.9132703-13.0071073 5.3876738l-3.5786438-3.5786438c4.4302833-4.4302833 10.3204807-6.8701116 16.5857511-6.8701116s12.1556052 2.4398283 16.5857511 6.8701116z"/><path d="m37.2775279 39.9425236c-2.9295794-2.9295794-7.6963434-2.9295794-10.6259227 0l-3.5786438-3.5787811c4.9028669-4.9027296 12.8803433-4.9027296 17.7832103 0z"/></g></svg>

<?xml version="1.0" encoding="UTF-8"?>
<svg width="64px" height="40px" viewBox="0 0 64 40" version="1.1" xmlns="http://www.w3.org/2000/svg" xmlns:xlink="http://www.w3.org/1999/xlink">
    <!-- Generator: Sketch 52.5 (67469) - http://www.bohemiancoding.com/sketch -->
    <title>Icons/.wifi</title>
    <desc>Created with Sketch.</desc>
    <g id="Vapaaehtoisalusta-Layouts" stroke="none" stroke-width="1" fill="none" fill-rule="evenodd">
        <g id="HKI-Ikonit" transform="translate(-1119.000000, -1004.000000)" fill="#231F20">
            <g id="Icons/.wifi" transform="translate(1119.000000, 1004.000000)">
                <g id="Group-8">
                    <path d="M60.3693047,16.8227983 C52.784618,9.23811159 42.7003605,5.06108155 31.9739056,5.06108155 C21.247588,5.06108155 11.1633305,9.23811159 3.57864378,16.8227983 L0,13.2440172 C8.54056652,4.70345064 19.8957597,0 31.9739056,0 C44.0521888,0 55.407382,4.70345064 63.9479485,13.2440172 L60.3693047,16.8227983 Z" id="Fill-1"></path>
                    <path d="M52.6721373,24.4856309 C47.1425923,18.9560858 39.7908326,15.910867 31.9708841,15.910867 C24.151073,15.910867 16.799176,18.9560858 11.2697682,24.4856309 L7.69098712,20.9069871 C14.176412,14.4215622 22.7992446,10.8497854 31.9708841,10.8497854 C41.1426609,10.8497854 49.7653562,14.4215622 56.2507811,20.9068498 L52.6721373,24.4856309 Z" id="Fill-3"></path>
                    <path d="M44.9748326,32.1483262 C41.5005665,28.6739227 36.8811674,26.7606524 31.9677253,26.7606524 C27.0542833,26.7606524 22.4350215,28.6739227 18.960618,32.1483262 L15.3819742,28.5696824 C19.8122575,24.1393991 25.7024549,21.6995708 31.9677253,21.6995708 C38.2329957,21.6995708 44.1233305,24.1393991 48.5534764,28.5696824 L44.9748326,32.1483262 Z" id="Fill-5"></path>
                    <path d="M37.2775279,39.9425236 C34.3479485,37.0129442 29.5811845,37.0129442 26.6516052,39.9425236 L23.0729614,36.3637425 C27.9758283,31.4610129 35.9533047,31.4610129 40.8561717,36.3637425 L37.2775279,39.9425236 Z" id="Fill-7"></path>
                </g>
            </g>
        </g>
    </g>
</svg>
